X:267
T:Tipsy Gypsy
C:David Grisman (Dm)
N:Transcribed by S.M. Block from playing of Tim Connell
L:1/8
Q:1/4=230
M:4/4
K:F
z6 A^c |: "Dm"df e^c df ec | d2 d4 ba | _a=a _a=a _af ed | "A7"^cd [e4e4] A=c | 
^cg e=c _dg ec | ^cg e3g _ag | fg fd ^cd (3BcB |1 "Dm"AF D4 A^c :|2 "Dm"AF D4 (3DE_G | 
|: "Gm"{_G}=G2 d2 ^cB A_G | GB AB ^cB AG | "Dm"DF D_D =DF D_D | D2 [D4D4] D_G | 
|1 "Gm"GB A2 dB A_G | GB AB ^cB AB | "E7"^cB AB dB AB | (3"A7"[ee][ee][ee] (3[ee][ee][ee] [e2e2] (3DE_G :|2 "Gm"GB AB _dB AB | 
dB AB ef ef | "E7"gf ef _af ef | (3"A7"[a_d][ad][ad] (3[ad][ad][ad] [a2d2] Ad | 
"Dm"AF D6 | 
 

